D/d2l.com logo.svg

<?xml version="1.0" ?>
<svg xmlns="http://www.w3.org/2000/svg" viewBox="0 0 88 42" fill="none">
	<g clip-path="url(#clip0_0_5)">
		<path d="M56.7215 26.5364L54.9521 35.3675H36.0151V33.1141C36.0151 33.1141 38.8358 30.0783 38.8999 30.0104C44.7977 23.6831 49.4262 18.6651 49.4262 13.454C49.4262 10.2252 48.1825 8.2117 46.0132 8.2117C43.8438 8.2117 42.5078 10.4417 42.5078 13.8035L42.495 15.5014H36.7972C36.6611 14.9738 36.5964 14.4298 36.6049 13.8844C36.6049 8.66813 41.6232 6 46.3491 6C51.0083 6 55.7086 8.26647 55.7086 13.6836C55.6856 15.0289 55.3602 16.3511 54.7572 17.5488C54.1083 18.8444 53.2982 20.0497 52.3469 21.135C51.1494 22.5747 48.5441 24.7864 46.2414 26.6512C44.4002 28.1378 42.7463 29.3897 42.1616 29.8357H53.3367L56.3035 26.5364H56.7215Z" fill="#131820"/>
		<path d="M16.2625 38.9588C23.0731 38.9588 25.3271 34.5745 25.3271 25.6574C25.3271 16.2916 21.7013 8.83752 15.383 8.83752C14.1749 8.7738 12.9724 9.0442 11.9033 9.61996V37.5661C12.929 38.6093 14.947 38.9484 16.2625 38.9484V38.9588ZM0 39.7751H3.27712L4.8926 37.5661V11.0336L3.27712 8.82448H0V6.61279H15.6266C27.7273 6.61279 33.0635 13.5869 33.0635 23.9021C33.0635 34.2172 24.7374 41.9999 15.5317 41.9999H0V39.7751Z" fill="#131820"/>
		<path d="M88 30.9471L85.7845 42.0004H59.9215V39.7835H63.1883L64.8218 37.5744V11.0471L63.1883 8.838H59.9215V6.62109H77.6071V8.838H73.3453L71.8222 11.0471V38.6959H80.038L87.1897 30.9471H88Z" fill="#131820"/>
		<path d="M55.5699 38.6851V40.0648L53.6698 41.9974H34.9507V40.6203L36.8534 38.6851H55.5699Z" fill="#34E82A"/>
	</g>
	<defs>
		<clipPath id="clip0_0_5">
			<rect width="88" height="42" fill="white"/>
		</clipPath>
	</defs>
</svg>

<svg viewBox="0 0 88 42" xmlns="http://www.w3.org/2000/svg">
    <path role="presentation" d="M16.3 39c6.8 0 9.1-4.4 9.1-13.3 0-9.4-3.6-16.8-9.9-16.8-1.3-.1-2.5.1-3.6.7v27.9c1 1.1 3 1.4 4.4 1.5zM0 39.8h3.3l1.6-2.2V11L3.3 8.8H0V6.6h15.6c12.1 0 17.4 7 17.4 17.3S24.7 42 15.5 42H0v-2.2z"></path>
    <path role="presentation" d="M88 30.9 85.8 42H59.9v-2.2h3.3l1.6-2.2V11l-1.6-2.2h-3.3V6.6h17.7v2.2h-4.3L71.8 11v27.6H80l7.2-7.7h.8z"></path>
    <path role="presentation" class="logo-divider" d="M55.6 38.7v1.4L53.7 42H35v-1.4l1.9-1.9h18.7z"></path>
    <path role="presentation" class="logo-two" d="M56.7 26.5 55 35.4H36v-2.3s2.8-3 2.9-3.1c5.9-6.3 10.5-11.3 10.5-16.6 0-3.2-1.2-5.2-3.4-5.2s-3.5 2.2-3.5 5.6v1.7h-5.7c-.1-.5-.2-1.1-.2-1.6 0-5.2 5-7.9 9.7-7.9 4.7 0 9.4 2.3 9.4 7.7 0 1.3-.3 2.7-1 3.9-.6 1.3-1.5 2.5-2.4 3.6-1.2 1.4-3.8 3.7-6.1 5.5-1.8 1.5-3.5 2.7-4.1 3.2h11.2l3-3.3h.4z"></path>
    <!-- <path role="presentation" class="logo-active" d="M59.6 21.5c-.3-2.7-1.1-5.7-2.6-6l-1.8-.3 4-10.1c.3-.7.3-1.6-.1-2.3s-.9-1.3-1.7-1.6c-.7-.2-1.5-.2-2.3.1-.7.3-1.3.9-1.6 1.6l-4.3 10.7-4-11.5c-.6-1.6-2.4-2.5-4-2h-.1c-1.6.5-2.6 2.6-2 4.2.2.6 1.8 6.9 3.5 11.6-1.2-.6-2.4-.7-3.3-.2-1.2.6-1.7 2.1-1.4 3.8.1.4.2.7.4 1.1-.7.2-2 .7-2.8 1.9-.7 1-.9 2.2-.6 3.7.9 4.1 2.9 7 6 8.6 1.7.8 3.7 1.3 5.6 1.2 2.4 0 4.7-.5 6.8-1.4 2.5-1.1 4.3-3 5.3-5.8 1-2.1 1.3-4.7 1-7.3zm-4.8-18c.1-.2.2-.4.3-.5.1-.2.3-.3.5-.4.2-.1.4-.1.6-.1.2 0 .4 0 .6.1.2.1.4.2.5.3.2.1.3.3.4.5.3.2.3.4.3.6 0 .2 0 .4-.1.6L53.8 15c-1.1-.1-2.3-.2-3.4-.3l4.4-11.2zm-14.3.4c-.3-.9.3-2.2 1.1-2.4h.1c.8-.3 1.9.3 2.2 1.1l4.2 12c-1.1-.1-1.9-.1-2.1-.1-.2 0-.3.1-.5.2-.1.1-.2.3-.3.4-.4.8-.3 2.7.9 4.2.7.9 1.9 1.9 4.1 2.1-.8.7-1.5 1.4-2.2 2.2 0-.1 0-.1-.1-.2-.4-1-1.3-2.7-2.2-4.1-.1-.2-.2-.3-.3-.4-2-3.5-4.9-14.8-4.9-15zm-.5 13c.7-.4 1.7-.1 2.7.7.3.3 1 1.1 1.6 2 .1.2.2.3.3.5.9 1.4 1.8 2.9 2.1 3.9.3.8.3 1.5-.1 1.8-.4.4-1.2.4-2 0-.4-.2-1.4-1.2-2.5-2.5-.2-.3-.5-.6-.6-.8-1.1-1.3-2-2.7-2.1-3.3-.3-1.1 0-2 .6-2.3zm12.9 16.4c-2.9 1.3-7.5 2.1-11.2.2-2.7-1.4-4.5-3.9-5.3-7.7-.2-1.1-.1-2 .4-2.6.8-1.1 2.3-1.4 2.3-1.4h.1c.3.4.5.8.9 1.2 0 .1.1.2.2.3l.1.1c.2.3.5.6.8.9.7.9 1.6 2.2 2.1 3.2.3.7.1 1.2-.1 1.5-.3.3-.7.3-1.2.1-1.2-.5-2.8-2.5-3.4-3.3-.1-.1-.3-.2-.5-.3-.2 0-.4 0-.5.1-.2.1-.3.3-.3.5s0 .4.1.5c.2.3 2.2 3 4 3.7 1 .4 2 .3 2.7-.4.7-.7.9-1.7.6-2.7.6.2 1.3.2 1.9.1-.1 1.3.1 2.6.7 3.7.1.2.2.3.4.3.2.1.4 0 .5 0 .2-.1.3-.2.4-.4.1-.2 0-.4 0-.5-2.1-4 1.8-7.6 4.4-9.1.1-.1.2-.2.3-.4.1-.1.1-.3 0-.5-.1-.1-.2-.3-.3-.4h-.6c-2.5.3-4.3-.2-5.2-1.6-.5-.7-.8-1.6-.7-2.5 1.6 0 8.2.5 10.2.9.5.2 1.6 2.7 1.6 6.4 0 2.3-.5 7.9-5.4 10.1z"></path> -->
</svg>
